X:0929
T:Mi'm'shuidh an deridh Bata,
C:a Highland Air.
M:C
L:1/8
Q:1/4=100
I: :: ||
Z:Jack Campin * www.campin.me.uk * 2009
K:G
DE|G>AGF E2 DG |B>c ({Bc}d>)B A2 GE|DE``````GA  B2   g>d         |B2   A2      G2:|
g2|ed`ef g3  b |a>g``````ab   e2 dB|d(e/f/) g>a g>a (g/a/).g/.f/ |e>^d e(f/g/) e2
g2|e>dBd g2 B<b|g<e``````d>B  A2 GE|DEGA        B2 (.g/.e/.d/.c/)|B2   A2      G2|]

